X: 2
T: Stone Of Destiny
R: reel
M: 4/4
L: 1/8
K: Gmaj
BddB G2 Bd|d2 Bd edBA|BddB GABd|gedB ~A3d|-edBA B~G3|BGAG EAGE|D~G3 DGBe|1 dBAB ~G3A:|2 dBAB ~G3d||-edBA B~G3|BGAG EGDd|edBA BGGA|BddB ~A3d|-edBA B~G3|BGAG EAGE|D~G3 DGBe|1 dBAB ~G3d:|2 dBAB ~G3A||


Tune 804	Setting 804

